X:1
T:[ID 11-27f]
T:[ID 11-27f]
T:Bezeichnung standardisiert: Anglaise No: 6  Angle
T:Urheber unbekannt Datum in der hier transkribierten schriftlichen Quelle: vermutlich um 1800
C:Urheber unbekannt
C:Datum in der hier transkribierten schriftlichen Quelle: vermutlich um 1800
L:1/8
M:3/8
K:D
V:1 treble 
V:1
 A, | !/!D2 | !/!F2 | Adc | B2 A | !/!G2 | !/!c2 | dge | d2 :: ecA | f2 a | ce/c/A/c/ | def | ecA | %14
 f2 a | ce/c/A/c/ | d2 ::[K:A] e | e2 d | c2 d | e2 f | d2 d | eBB | Ecc | eGG | a2 :| %26

